X: 17848
T: Horizonto
R: jig
M: 6/8
K: Dminor
aba gaf|gef dec|A2d def|e2e cde|
f3 fgf|ede cde|fed edc|1 A=B^c dfg:|2 A=B^c d_BA||
B2B def|B2B def|A2A def|A2A def|
B2B def|B2B def|aba gaf|gef dec|
B2B def|B2B def|A2A def|A2A def|
B2B def|B2B def|=B2B def|=B2B def|
b2a2gf|e3 efg|a2g2fe|d3 def|
g2f2ed|^c3 cde|f2g2^g2|a3 aga|
b2c'2b2|e3 efg|a2b2a2|d3 def|
g2f2ed|^c3 cde|f2d d2c d3|z3||

